markets/STRK.svg

<svg width="42" height="42" viewBox="0 0 42 42" fill="none" xmlns="http://www.w3.org/2000/svg">
<g clip-path="url(#clip0_7698_85192)">
<path fill-rule="evenodd" clip-rule="evenodd" d="M0 21.1313C0 32.6564 9.40175 41.9988 20.9997 41.9988C32.5976 41.9988 42 32.6564 42 21.1313C42 9.60631 32.5976 0.263672 20.9997 0.263672C9.40175 0.263672 0 9.60631 0 21.1313Z" fill="#0C0C4F"/>
<path fill-rule="evenodd" clip-rule="evenodd" d="M11.7372 16.2146L12.2556 14.6231C12.3609 14.2995 12.618 14.0476 12.9449 13.9482L14.5543 13.4565C14.7771 13.3889 14.7789 13.0766 14.5579 13.0053L12.9558 12.4902C12.6307 12.3855 12.3772 12.13 12.2766 11.8052L11.7823 10.2059C11.7143 9.98514 11.4 9.98276 11.3283 10.2029L10.81 11.7944C10.7046 12.1175 10.4475 12.3694 10.1206 12.4693L8.51121 12.9605C8.28845 13.0287 8.28603 13.3404 8.50759 13.4116L10.1097 13.9267C10.4349 14.0314 10.6884 14.2875 10.7889 14.6123L11.2832 16.211C11.3512 16.4324 11.6655 16.4348 11.7372 16.2146Z" fill="#FAFAFA"/>
<path fill-rule="evenodd" clip-rule="evenodd" d="M37.1747 15.288C36.5113 14.5508 35.4759 14.1357 34.4692 13.9654C33.4546 13.802 32.3905 13.8171 31.3888 13.994C29.3619 14.3347 27.5206 15.1687 25.9145 16.1975C25.0805 16.7024 24.3693 17.2867 23.6324 17.8817C23.2774 18.1826 22.9537 18.5031 22.6166 18.819L21.6954 19.7297C20.6945 20.7693 19.708 21.7163 18.7535 22.5011C17.7951 23.2824 16.8991 23.8757 16.0161 24.2901C15.1337 24.7066 14.1894 24.9516 12.9587 24.9908C11.7388 25.0335 10.2955 24.8148 8.75162 24.4536C7.19948 24.0941 5.56956 23.5816 3.74817 23.1406C4.3837 24.8926 5.34071 26.4408 6.56943 27.8562C7.81255 29.2469 9.36482 30.5146 11.3589 31.3482C13.3242 32.2004 15.794 32.506 18.1033 32.0445C20.4187 31.6018 22.4506 30.537 24.093 29.3058C25.7397 28.0619 27.0719 26.6448 28.195 25.1718C28.5049 24.7647 28.6689 24.5369 28.8933 24.2188L29.5135 23.3061C29.9444 22.7415 30.3367 22.0986 30.7631 21.5392C31.5994 20.3677 32.424 19.1975 33.382 18.1193C33.8642 17.5725 34.3727 17.0495 34.9729 16.5469C35.2723 16.3015 35.5958 16.0614 35.9541 15.8451C36.3177 15.6118 36.7019 15.4292 37.1747 15.288Z" fill="url(#paint0_linear_7698_85192)"/>
<path fill-rule="evenodd" clip-rule="evenodd" d="M37.1747 15.2891C36.4621 13.5019 35.1369 11.9975 33.3583 10.8873C31.5906 9.78936 29.1355 9.22902 26.7024 9.70668C25.5005 9.93765 24.3361 10.3824 23.3142 10.9746C22.2969 11.5645 21.3854 12.2746 20.5962 13.0364C20.2023 13.4186 19.8447 13.8172 19.4895 14.2181L18.5687 15.3847L17.1466 17.2625C15.3336 19.6785 13.3812 22.5099 10.1773 23.3489C7.03204 24.1726 5.66786 23.4431 3.74817 23.1418C4.09919 24.0423 4.53397 24.9168 5.1234 25.6861C5.70186 26.4711 6.38513 27.2083 7.23459 27.8402C7.66387 28.1437 8.1171 28.4433 8.62046 28.6974C9.12156 28.9428 9.66193 29.1588 10.2387 29.3216C11.386 29.634 12.6777 29.7434 13.9283 29.5754C15.1795 29.4095 16.3754 29.0154 17.4208 28.4921C18.4739 27.9739 19.3912 27.3425 20.2104 26.6763C21.8387 25.3325 23.1052 23.8478 24.1751 22.3471C24.7132 21.5967 25.2017 20.8322 25.6534 20.0675L26.1852 19.1571C26.3477 18.8909 26.5121 18.6232 26.679 18.3738C27.3529 17.3719 28.0118 16.5685 28.8122 15.9655C29.6015 15.3469 30.7006 14.8899 32.1693 14.7837C33.6319 14.6763 35.3204 14.8747 37.1747 15.2891Z" fill="#FAFAFA"/>
<path fill-rule="evenodd" clip-rule="evenodd" d="M29.2621 30.1391C29.2621 31.4516 30.3336 32.5164 31.6545 32.5164C32.9756 32.5164 34.0456 31.4516 34.0456 30.1391C34.0456 28.8262 32.9756 27.7617 31.6545 27.7617C30.3336 27.7617 29.2621 28.8262 29.2621 30.1391Z" fill="url(#paint1_linear_7698_85192)"/>
</g>
<defs>
<linearGradient id="paint0_linear_7698_85192" x1="36.9961" y1="14.6609" x2="7.66378" y2="31.0621" gradientUnits="userSpaceOnUse">
<stop stop-color="#EC796B"/>
<stop offset="1" stop-color="#E175B1"/>
</linearGradient>
<linearGradient id="paint1_linear_7698_85192" x1="34.044" y1="28.4712" x2="29.2596" y2="28.9805" gradientUnits="userSpaceOnUse">
<stop stop-color="#EC796B"/>
<stop offset="1" stop-color="#E175B1"/>
</linearGradient>
<clipPath id="clip0_7698_85192">
<rect width="42" height="42" fill="white"/>
</clipPath>
</defs>
</svg>

<svg xmlns="http://www.w3.org/2000/svg" width="42" height="42" fill="none"><g fill-rule="evenodd" clip-path="url(#a)" clip-rule="evenodd"><path fill="#0C0C4F" d="M0 21.131C0 32.656 9.402 42 21 42s21-9.343 21-20.868C42 9.606 32.598.264 21 .264S0 9.606 0 21.13Z"/><path fill="#FAFAFA" d="m11.737 16.215.519-1.592c.105-.323.362-.575.689-.675l1.61-.492a.236.236 0 0 0 .003-.45l-1.602-.516a1.046 1.046 0 0 1-.68-.685l-.494-1.6c-.068-.22-.382-.222-.454-.002l-.518 1.591a1.046 1.046 0 0 1-.69.675l-1.609.492a.236.236 0 0 0-.003.45l1.602.516c.325.104.578.36.679.685l.494 1.599c.068.221.383.224.454.004Z"/><path fill="url(#b)" d="M37.175 15.288c-.664-.737-1.7-1.152-2.706-1.323a9.356 9.356 0 0 0-3.08.029c-2.027.34-3.868 1.175-5.474 2.204-.834.504-1.546 1.089-2.283 1.684-.355.3-.678.621-1.015.937l-.922.91c-1 1.04-1.987 1.987-2.942 2.772-.958.781-1.854 1.375-2.737 1.79-.882.416-1.827.66-3.057.7-1.22.043-2.663-.176-4.207-.537-1.553-.36-3.182-.872-5.004-1.313.636 1.752 1.593 3.3 2.821 4.715 1.244 1.39 2.796 2.659 4.79 3.492 1.965.852 4.435 1.158 6.744.697 2.316-.443 4.348-1.508 5.99-2.74 1.647-1.243 2.979-2.66 4.102-4.133.31-.407.474-.635.698-.953l.62-.913c.431-.565.824-1.207 1.25-1.767.836-1.171 1.661-2.341 2.619-3.42.482-.546.99-1.07 1.59-1.572.3-.245.624-.486.982-.702a4.666 4.666 0 0 1 1.22-.557Z"/><path fill="#FAFAFA" d="M37.175 15.29c-.713-1.788-2.038-3.292-3.817-4.403-1.767-1.098-4.222-1.658-6.656-1.18a10.943 10.943 0 0 0-3.388 1.268c-1.017.59-1.929 1.3-2.718 2.061-.394.383-.751.781-1.107 1.182l-.92 1.167-1.422 1.877c-1.813 2.416-3.766 5.248-6.97 6.087-3.145.824-4.51.094-6.429-.207.351.9.786 1.775 1.375 2.544a10.137 10.137 0 0 0 2.112 2.154c.429.304.882.603 1.385.857a9.631 9.631 0 0 0 1.619.625 9.464 9.464 0 0 0 3.69.253 11.15 11.15 0 0 0 3.492-1.083 14.713 14.713 0 0 0 2.79-1.816c1.628-1.343 2.894-2.828 3.964-4.329a30.666 30.666 0 0 0 1.478-2.28l.532-.91c.163-.266.327-.534.494-.783.674-1.002 1.333-1.805 2.133-2.408.79-.62 1.889-1.076 3.357-1.182 1.463-.108 3.151.09 5.006.505Z"/><path fill="url(#c)" d="M29.262 30.14a2.385 2.385 0 0 0 2.392 2.376 2.384 2.384 0 0 0 2.392-2.377 2.384 2.384 0 0 0-2.392-2.377 2.385 2.385 0 0 0-2.392 2.377Z"/></g><defs><linearGradient id="b" x1="36.996" x2="7.664" y1="14.661" y2="31.062" gradientUnits="userSpaceOnUse"><stop stop-color="#EC796B"/><stop offset="1" stop-color="#E175B1"/></linearGradient><linearGradient id="c" x1="34.044" x2="29.26" y1="28.471" y2="28.98" gradientUnits="userSpaceOnUse"><stop stop-color="#EC796B"/><stop offset="1" stop-color="#E175B1"/></linearGradient><clipPath id="a"><path fill="#fff" d="M0 0h42v42H0z"/></clipPath></defs></svg>
